src/assets/IconSearchActive.svg

<svg width="557" height="557" fill="none" xmlns="http://www.w3.org/2000/svg"><g fill-rule="evenodd" clip-rule="evenodd"><path d="M278.5 557C432.311 557 557 432.311 557 278.5S432.311 0 278.5 0 0 124.689 0 278.5 124.689 557 278.5 557z" fill="url(#paint0_linear)"/><path opacity=".668" d="M363.774 198.65v187.586c0 10.088-8.187 18.263-18.273 18.263H176.6c-10.094 0-18.274-8.175-18.274-18.263V139.263c0-10.088 8.179-18.263 18.274-18.263h109.479l77.695 77.65z" fill="url(#paint1_linear)"/><path d="M363.774 198.65h-59.421c-10.094 0-18.274-8.175-18.274-18.263V121l77.695 77.65z" fill="#fff"/><path opacity=".668" d="M428.116 407.627c4.559 4.271 4.794 11.432.526 15.994-.169.182-.345.357-.526.527a10.852 10.852 0 0 1-8.141 3.621 11.08 11.08 0 0 1-8.367-3.621l-39.573-39.378a95.7 95.7 0 0 0 9.045-7.695 69.922 69.922 0 0 0 7.462-8.826l.905.679 38.669 38.699z" fill="#fff"/><path d="M408 320c0-45.287-36.713-82-82-82s-82 36.713-82 82 36.713 82 82 82 82-36.713 82-82zm-142 0c0-33.137 26.863-60 60-60s60 26.863 60 60-26.863 60-60 60-60-26.863-60-60z" fill="#fff"/></g><defs><linearGradient id="paint0_linear" x1="172.727" y1="782.523" x2="719.023" y2="350.945" gradientUnits="userSpaceOnUse"><stop stop-color="#FFB36D"/><stop offset="1" stop-color="#F88"/></linearGradient><linearGradient id="paint1_linear" x1="429.103" y1="333.625" x2="283.716" y2="199.615" gradientUnits="userSpaceOnUse"><stop stop-color="#fff" stop-opacity=".01"/><stop offset="1" stop-color="#fff"/></linearGradient></defs></svg>

<svg width="557" height="557" viewBox="0 0 557 557" fill="none" xmlns="http://www.w3.org/2000/svg">
<g id="Group 75">
<g id="Group 70">
<g id="Group 80">
<path id="Oval Copy 6" fill-rule="evenodd" clip-rule="evenodd" d="M278.5 557C432.311 557 557 432.311 557 278.5C557 124.689 432.311 0 278.5 0C124.689 0 0 124.689 0 278.5C0 432.311 124.689 557 278.5 557Z" fill="url(#paint0_linear)"/>
<path id="Path" opacity="0.668271" fill-rule="evenodd" clip-rule="evenodd" d="M363.774 198.65V386.236C363.774 396.324 355.587 404.499 345.501 404.499H176.6C166.506 404.499 158.326 396.324 158.326 386.236V139.263C158.326 129.175 166.505 121 176.6 121H286.079L363.774 198.65Z" fill="url(#paint1_linear)"/>
<path id="Path_2" fill-rule="evenodd" clip-rule="evenodd" d="M363.774 198.65H304.353C294.259 198.65 286.079 190.475 286.079 180.387V121L363.774 198.65Z" fill="white"/>
<path id="Path_3" opacity="0.668271" fill-rule="evenodd" clip-rule="evenodd" d="M428.116 407.627C432.675 411.898 432.91 419.059 428.642 423.621C428.473 423.803 428.297 423.978 428.116 424.148C426.045 426.465 423.082 427.783 419.975 427.769C416.797 427.819 413.749 426.5 411.608 424.148L372.035 384.77C375.206 382.395 378.227 379.825 381.08 377.075C383.806 374.344 386.303 371.392 388.542 368.249L389.447 368.928L428.116 407.627Z" fill="white"/>
<path id="Oval" fill-rule="evenodd" clip-rule="evenodd" d="M408 320C408 274.713 371.287 238 326 238C280.713 238 244 274.713 244 320C244 365.287 280.713 402 326 402C371.287 402 408 365.287 408 320ZM266 320C266 286.863 292.863 260 326 260C359.137 260 386 286.863 386 320C386 353.137 359.137 380 326 380C292.863 380 266 353.137 266 320Z" fill="white"/>
</g>
</g>
</g>
<defs>
<linearGradient id="paint0_linear" x1="172.727" y1="782.523" x2="719.023" y2="350.945" gradientUnits="userSpaceOnUse">
<stop stop-color="#FFB36D"/>
<stop offset="1" stop-color="#FF8888"/>
</linearGradient>
<linearGradient id="paint1_linear" x1="429.103" y1="333.625" x2="283.716" y2="199.615" gradientUnits="userSpaceOnUse">
<stop stop-color="white" stop-opacity="0.01"/>
<stop offset="1" stop-color="white"/>
</linearGradient>
</defs>
</svg>
